icons/money-dollar-box-line.svg

<svg viewBox="0 0 24 24" fill="currentColor" xmlns="http://www.w3.org/2000/svg">
    <path d="M3.00488 3.00275H21.0049C21.5572 3.00275 22.0049 3.45046 22.0049 4.00275V20.0027C22.0049 20.555 21.5572 21.0027 21.0049 21.0027H3.00488C2.4526 21.0027 2.00488 20.555 2.00488 20.0027V4.00275C2.00488 3.45046 2.4526 3.00275 3.00488 3.00275ZM4.00488 5.00275V19.0027H20.0049V5.00275H4.00488ZM8.50488 14.0027H14.0049C14.281 14.0027 14.5049 13.7789 14.5049 13.5027C14.5049 13.2266 14.281 13.0027 14.0049 13.0027H10.0049C8.62417 13.0027 7.50488 11.8835 7.50488 10.5027C7.50488 9.12203 8.62417 8.00275 10.0049 8.00275H11.0049V6.00275H13.0049V8.00275H15.5049V10.0027H10.0049C9.72874 10.0027 9.50488 10.2266 9.50488 10.5027C9.50488 10.7789 9.72874 11.0027 10.0049 11.0027H14.0049C15.3856 11.0027 16.5049 12.122 16.5049 13.5027C16.5049 14.8835 15.3856 16.0027 14.0049 16.0027H13.0049V18.0027H11.0049V16.0027H8.50488V14.0027Z"/>
</svg>

<svg xmlns="http://www.w3.org/2000/svg" viewBox="0 0 24 24">
    <g>
        <path fill="none" d="M0 0h24v24H0z"/>
        <path d="M3 3h18a1 1 0 0 1 1 1v16a1 1 0 0 1-1 1H3a1 1 0 0 1-1-1V4a1 1 0 0 1 1-1zm1 2v14h16V5H4zm4.5 9H14a.5.5 0 1 0 0-1h-4a2.5 2.5 0 1 1 0-5h1V6h2v2h2.5v2H10a.5.5 0 1 0 0 1h4a2.5 2.5 0 1 1 0 5h-1v2h-2v-2H8.5v-2z"/>
    </g>
</svg>
